src/assets/outline/Shop.svg

<svg width="24" height="24" viewBox="0 0 24 24"  xmlns="http://www.w3.org/2000/svg">
<path d="M14.6998 22.7497H9.29977C4.35977 22.7497 2.25977 20.6397 2.25977 15.7097V11.2197C2.25977 10.8097 2.59977 10.4697 3.00977 10.4697C3.41977 10.4697 3.75977 10.8097 3.75977 11.2197V15.7097C3.75977 19.7997 5.20977 21.2497 9.29977 21.2497H14.6898C18.7798 21.2497 20.2298 19.7997 20.2298 15.7097V11.2197C20.2298 10.8097 20.5698 10.4697 20.9798 10.4697C21.3898 10.4697 21.7298 10.8097 21.7298 11.2197V15.7097C21.7398 20.6397 19.6298 22.7497 14.6998 22.7497Z" />
<path d="M12 12.75C10.9 12.75 9.9 12.32 9.19 11.53C8.48 10.74 8.15 9.71 8.26 8.61L8.93 1.93C8.97 1.55 9.29 1.25 9.68 1.25H14.35C14.74 1.25 15.06 1.54 15.1 1.93L15.77 8.61C15.88 9.71 15.55 10.74 14.84 11.53C14.1 12.32 13.1 12.75 12 12.75ZM10.35 2.75L9.75 8.76C9.68 9.43 9.88 10.06 10.3 10.52C11.15 11.46 12.85 11.46 13.7 10.52C14.12 10.05 14.32 9.42 14.25 8.76L13.65 2.75H10.35Z" />
<path d="M18.31 12.75C16.28 12.75 14.47 11.11 14.26 9.09L13.56 2.08C13.54 1.87 13.61 1.66 13.75 1.5C13.89 1.34 14.09 1.25 14.31 1.25H17.36C20.3 1.25 21.67 2.48 22.08 5.5L22.36 8.28C22.48 9.46 22.12 10.58 21.35 11.43C20.58 12.28 19.5 12.75 18.31 12.75ZM15.14 2.75L15.76 8.94C15.89 10.19 17.05 11.25 18.31 11.25C19.07 11.25 19.75 10.96 20.24 10.43C20.72 9.9 20.94 9.19 20.87 8.43L20.59 5.68C20.28 3.42 19.55 2.75 17.36 2.75H15.14Z" />
<path d="M5.64002 12.75C4.45002 12.75 3.37002 12.28 2.60002 11.43C1.83002 10.58 1.47002 9.46 1.59002 8.28L1.86002 5.53C2.28002 2.48 3.65002 1.25 6.59002 1.25H9.64002C9.85002 1.25 10.05 1.34 10.2 1.5C10.35 1.66 10.41 1.87 10.39 2.08L9.69002 9.09C9.48002 11.11 7.67002 12.75 5.64002 12.75ZM6.59002 2.75C4.40002 2.75 3.67002 3.41 3.35002 5.7L3.08002 8.43C3.00002 9.19 3.23002 9.9 3.71002 10.43C4.19002 10.96 4.87002 11.25 5.64002 11.25C6.90002 11.25 8.07002 10.19 8.19002 8.94L8.81002 2.75H6.59002Z" />
<path d="M14.5 22.75H9.5C9.09 22.75 8.75 22.41 8.75 22V19.5C8.75 17.4 9.9 16.25 12 16.25C14.1 16.25 15.25 17.4 15.25 19.5V22C15.25 22.41 14.91 22.75 14.5 22.75ZM10.25 21.25H13.75V19.5C13.75 18.24 13.26 17.75 12 17.75C10.74 17.75 10.25 18.24 10.25 19.5V21.25Z" />
</svg>

<?xml version="1.0" encoding="UTF-8"?>
<svg width="24" height="24" viewBox="0 0 24 24" xmlns="http://www.w3.org/2000/svg">
 <path d="m14.7 22.75h-5.4c-4.94 0-7.04-2.11-7.04-7.04v-4.49c0-0.41 0.34-0.75 0.75-0.75s0.75 0.34 0.75 0.75v4.49c0 4.09 1.45 5.54 5.54 5.54h5.39c4.09 0 5.54-1.45 5.54-5.54v-4.49c0-0.41 0.34-0.75 0.75-0.75s0.75 0.34 0.75 0.75v4.49c0.01 4.93-2.1 7.04-7.03 7.04z"/>
 <path d="m12 12.75c-1.1 0-2.1-0.43-2.81-1.22s-1.04-1.82-0.93-2.92l0.67-6.68c0.04-0.38 0.36-0.68 0.75-0.68h4.67c0.39 0 0.71 0.29 0.75 0.68l0.67 6.68c0.11 1.1-0.22 2.13-0.93 2.92-0.74 0.79-1.74 1.22-2.84 1.22zm-1.65-10-0.6 6.01c-0.07 0.67 0.13 1.3 0.55 1.76 0.85 0.94 2.55 0.94 3.4 0 0.42-0.47 0.62-1.1 0.55-1.76l-0.6-6.01h-3.3z"/>
 <path d="m18.31 12.75c-2.03 0-3.84-1.64-4.05-3.66l-0.7-7.01c-0.02-0.21 0.05-0.42 0.19-0.58s0.34-0.25 0.56-0.25h3.05c2.94 0 4.31 1.23 4.72 4.25l0.28 2.78c0.12 1.18-0.24 2.3-1.01 3.15s-1.85 1.32-3.04 1.32zm-3.17-10 0.62 6.19c0.13 1.25 1.29 2.31 2.55 2.31 0.76 0 1.44-0.29 1.93-0.82 0.48-0.53 0.7-1.24 0.63-2l-0.28-2.75c-0.31-2.26-1.04-2.93-3.23-2.93h-2.22z"/>
 <path d="m5.64 12.75c-1.19 0-2.27-0.47-3.04-1.32s-1.13-1.97-1.01-3.15l0.27-2.75c0.42-3.05 1.79-4.28 4.73-4.28h3.05c0.21 0 0.40998 0.09 0.55998 0.25s0.21 0.37 0.19 0.58l-0.69998 7.01c-0.21 2.02-2.02 3.66-4.05 3.66zm0.95-10c-2.19 0-2.92 0.66-3.24 2.95l-0.27 2.73c-0.08 0.76 0.15 1.47 0.63 2s1.16 0.82 1.93 0.82c1.26 0 2.43-1.06 2.55-2.31l0.62-6.19h-2.22z"/>
 <path d="m14.5 22.75h-5c-0.41 0-0.75-0.34-0.75-0.75v-2.5c0-2.1 1.15-3.25 3.25-3.25s3.25 1.15 3.25 3.25v2.5c0 0.41-0.34 0.75-0.75 0.75zm-4.25-1.5h3.5v-1.75c0-1.26-0.49-1.75-1.75-1.75s-1.75 0.49-1.75 1.75v1.75z"/>
</svg>
